images/badminton_theme_light.svg

<svg width="50" height="50" viewBox="0 0 50 50" fill="none" xmlns="http://www.w3.org/2000/svg">
<path d="M28.8186 3.07967C27.6907 0.886009 27.7156 0.770154 29.3829 0.446036C30.3419 0.260491 32.1772 0.0624095 33.4616 0.00604127C34.7459 -0.050327 37.197 0.294149 38.9078 0.772496C40.7354 1.28294 43.3515 2.98183 45.25 4.89131C47.3399 6.99259 48.8134 9.38041 49.4197 11.6438C49.935 13.5697 50.1475 16.6832 49.8914 18.5637C49.6345 20.4442 48.4787 23.7324 47.3212 25.8712C46.1638 28.0101 43.9166 30.7956 42.328 32.0608C40.7393 33.326 37.9629 34.8855 36.1586 35.5259C34.3536 36.1671 31.3514 36.6908 29.488 36.6908C27.6238 36.6908 24.6698 36.1162 22.924 35.4131C19.7575 34.1394 19.7443 34.1409 17.4598 36.3424C16.2004 37.5567 15.1699 38.9142 15.1699 39.3605C15.1699 39.8067 12.9904 42.3833 10.3276 45.0858C6.72842 48.7388 4.93742 50 3.34954 50C2.03487 50 0.90386 49.4183 0.408038 48.4851C-0.0901186 47.5488 -0.135247 46.2797 0.289744 45.1578C0.668032 44.1612 2.92375 41.4962 5.30245 39.2352C7.68193 36.9742 10.1089 35.125 10.6966 35.125C11.2842 35.125 12.746 34.0955 13.9439 32.8374L16.1233 30.5498L14.7729 26.9924C13.8295 24.5082 13.5252 22.0069 13.7626 18.7C13.9502 16.0945 14.481 13.5838 14.9426 13.1195C15.5419 12.5167 16.3047 12.5504 17.6163 13.2377C18.625 13.7662 19.5482 14.279 19.6673 14.376C19.7864 14.4731 19.4976 15.5708 19.0267 16.814C18.555 18.0588 18.3884 20.5554 18.6577 22.3655C18.9559 24.3775 19.9794 26.5531 21.2917 27.9655C22.4717 29.2361 24.831 30.6962 26.534 31.209C28.8917 31.9199 30.4244 31.9277 32.9525 31.2427C34.7793 30.7479 37.7091 29.0412 39.4628 27.4495C41.2157 25.8579 43.1227 23.4223 43.6995 22.0366C44.2762 20.6509 44.7463 18.0086 44.7448 16.1649C44.7432 14.2226 44.1034 11.7588 43.2223 10.3066C42.3871 8.9279 40.6545 7.25407 39.3725 6.58783C38.0905 5.9208 35.4573 5.37512 33.5199 5.37512C30.4135 5.37512 29.86 5.10502 28.8186 3.07967Z" fill="#0086FF"/>
<path d="M17.2722 9.1964L20.6644 5.71959C22.5294 3.80777 24.2635 2.24355 24.5173 2.24355C24.771 2.24355 25.7253 3.78974 26.6384 5.67965L28.2979 9.11498L26.39 10.9172L24.4831 12.7202L20.8776 10.9579L17.2722 9.1964Z" fill="#0086FF"/>
<path d="M28.4566 13.5376C27.4806 14.582 26.9147 15.815 27.1988 16.2777C27.4829 16.7404 28.7081 17.1185 29.9215 17.1185C31.2097 17.1185 32.3228 16.6065 32.5968 15.8878C32.8552 15.2106 32.7058 13.9775 32.2636 13.1477C31.8223 12.317 31.184 11.6383 30.8454 11.6383C30.5068 11.6383 29.4319 12.4932 28.4566 13.5376Z" fill="#0069B7"/>
</svg>

<svg width="50" height="50" fill="none" xmlns="http://www.w3.org/2000/svg"><path d="M28.819 3.08C27.69.886 27.716.77 29.383.446c.959-.186 2.794-.384 4.079-.44 1.284-.056 3.735.288 5.446.766 1.827.51 4.444 2.21 6.342 4.12 2.09 2.1 3.563 4.488 4.17 6.752.515 1.926.727 5.04.471 6.92s-1.412 5.168-2.57 7.307c-1.157 2.14-3.404 4.925-4.993 6.19-1.589 1.265-4.365 2.825-6.17 3.465-1.804.641-4.807 1.165-6.67 1.165-1.864 0-4.818-.575-6.564-1.278-3.166-1.274-3.18-1.272-5.464.93-1.26 1.214-2.29 2.571-2.29 3.017 0 .447-2.18 3.023-4.842 5.726C6.728 48.739 4.938 50 3.35 50c-1.315 0-2.446-.582-2.942-1.515-.498-.936-.543-2.205-.118-3.327.378-.997 2.634-3.662 5.012-5.923 2.38-2.26 4.807-4.11 5.395-4.11.587 0 2.049-1.03 3.247-2.288l2.18-2.287-1.351-3.558c-.944-2.484-1.248-4.985-1.01-8.292.187-2.605.718-5.116 1.18-5.58.599-.603 1.362-.57 2.673.118 1.009.528 1.932 1.041 2.051 1.138.12.097-.17 1.195-.64 2.438-.472 1.245-.639 3.741-.37 5.552.299 2.012 1.322 4.187 2.635 5.6 1.18 1.27 3.539 2.73 5.242 3.243 2.358.71 3.89.719 6.419.034 1.826-.495 4.756-2.202 6.51-3.793 1.753-1.592 3.66-4.028 4.236-5.413.577-1.386 1.047-4.028 1.046-5.872-.002-1.942-.642-4.406-1.523-5.858-.835-1.38-2.568-3.053-3.85-3.72-1.282-.666-3.915-1.212-5.852-1.212-3.107 0-3.66-.27-4.701-2.295Z" fill="#0086FF"/><path d="m17.272 9.196 3.392-3.476c1.865-1.912 3.6-3.476 3.853-3.476.254 0 1.208 1.546 2.121 3.436l1.66 3.435-1.908 1.802-1.907 1.803-3.605-1.762-3.606-1.762Z" fill="#0086FF"/><path d="M28.457 13.538c-.976 1.044-1.542 2.277-1.258 2.74.284.462 1.51.84 2.723.84 1.288 0 2.4-.511 2.675-1.23.258-.677.109-1.91-.333-2.74-.442-.831-1.08-1.51-1.419-1.51-.338 0-1.413.855-2.388 1.9Z" fill="#0069B7"/></svg>
